X:1
T:Title
%%score { 1 | ( 2 3 ) }
L:1/8
M:3/4
K:Ab
V:1 treble nm="Grand Piano"
V:2 bass 
V:3 bass 
V:1
 z2 z2[Q:1/4=100] E2 | [Ec]2 [Ec]2 [Fd]>[Ec] | c2 B2 E2 | B2 B2 c>B | B2 [CA]2 [CE]2 | %5
 [EA]3 [DG] [CA]2 | B2 A2 F2 | [CE]2 [CA]2 [Ec]2 |[M:2/4] B4 |[M:1/4] E2 | %10
[M:3/4] [Ec]2 [Ec]2 [Fd]>[Ec] | c2 B2 E2 | B2 B2 c>B | B2 [CA]2 [CE]2 | [EA]3 [EB] [Ec]2 | %15
 d2 c2 [EA]2 | B2 A2 G2 |[M:2/4] [CA]4 |[M:1/4] G>A |[M:3/4] B2 B2 c2 | B2 G2 B2 | %21
 [GB][FA] [EG]2 [=DF]2 | [EG][FA] [GB]2 G>A | B2 B2 c2 | B2 G2 B2 | [GB]A [B,EG]2 [A,=DF]2 | %26
[M:2/4] [G,E]4 |[M:1/4] EE |[M:3/4] [Ec]2 [Ec]2 [Fd]>[Ec] | c2 B2 E2 | B2 B2 c>B | B2 [CA]2 [CE]2 | %32
 [DF][EG] [FA][GB] [Ac][Bd] |[M:7/8] [Ae]2 [Ae]3 [Fd]2 |[M:3/4] c2 A2 B2 |[M:2/4] [CA]4 |] %36
V:2
 z2 z2 E,2 | [A,,A,]2 [A,,A,]2 [A,,A,]>[A,,A,] | [E,A,E]2 [E,G,E]2 E,2 | %3
 [E,G,D]2 [E,G,D]2 [E,G,E]>[E,G,D] | [E,G,D]2 [A,,A,]2 [A,,A,]2 | [C,A,]3 [B,,E,] [A,,E,]2 | %6
 [D,F,D]2 [D,F,D]2 [D,A,D]2 | [A,,A,]2 [A,,A,]2 [A,,A,]2 |[M:2/4] [E,G,E]4 |[M:1/4] E,2 | %10
[M:3/4] [A,,A,]2 [A,,A,]2 [A,,A,]>[A,,A,] | [E,A,E]2 [E,G,E]2 E,2 | %12
 [E,G,D]2 [E,G,D]2 [E,G,E]>[E,G,D] | [E,G,D]2 [A,,A,]2 [A,,A,]2 | [C,A,]3 [B,,G,] [A,,A,]2 | %15
 [A,F]2 [A,E]2[K:bass] [C,A,]2 | [D,F,D]2 [E,C]2 [E,B,]2 |[M:2/4] [A,,E,]4 |[M:1/4] [E,E]>[E,F,E] | %19
[M:3/4] [E,G,E]2 [E,G,E]2 [E,A,E]2 | [E,G,E]2 [E,B,E]2 [E,G,E]2 | [B,,B,]2 [B,,B,]2 [B,,B,]2 | %22
 z2 z2 [E,E]2 | [E,G,E]2 [E,G,E]2 [E,A,E]2 | [E,G,E]2 [E,E]2 [E,G,E]2 | z F B,,2 B,,2 | %26
[M:2/4] E,4 |[M:1/4] E,E, |[M:3/4] [A,,A,]2 [A,,A,]2 [A,,A,]>[A,,A,] | [E,A,E]2 [E,G,E]2 E,2 | %30
 [E,G,D]2 [E,G,D]2 [E,G,E]>[E,G,D] | [E,G,D]2 [A,,A,]2 [A,,A,]2 | [D,A,]2 [D,A,]2 [D,A,]2 | %33
[M:7/8] [C,A,]2 [C,A,]3 [D,A,]2 |[M:3/4] [E,A,E]2 [E,C]2 [E,D]2 |[M:2/4] [A,,E,]4 |] %36
V:3
 x6 | x6 | x6 | x6 | x6 | x6 | x6 | x6 |[M:2/4] x4 |[M:1/4] x2 |[M:3/4] x6 | x6 | x6 | x6 | x6 | %15
 x4[K:bass] x2 | x6 |[M:2/4] x4 |[M:1/4] x2 |[M:3/4] x6 | x6 | x6 | [E,B,]2 [E,B,]2 z z/ F,/ | x6 | %24
 x6 | [B,,B,]2 z2 z2 |[M:2/4] x4 |[M:1/4] x2 |[M:3/4] x6 | x6 | x6 | x6 | x6 |[M:7/8] x7 | %34
[M:3/4] x6 |[M:2/4] x4 |] %36

